svg/pause-button.svg

<?xml version="1.0" encoding="UTF-8"?>
<svg xmlns="http://www.w3.org/2000/svg" xmlns:xlink="http://www.w3.org/1999/xlink" width="32" height="32" viewBox="0 0 32 32">
<path fill-rule="nonzero" fill="rgb(0%, 0%, 0%)" fill-opacity="1" d="M 16 1.28125 C 7.882812 1.28125 1.28125 7.882812 1.28125 16 C 1.28125 24.117188 7.882812 30.71875 16 30.71875 C 24.117188 30.71875 30.71875 24.117188 30.71875 16 C 30.71875 7.882812 24.117188 1.28125 16 1.28125 M 14.078125 21.761719 L 10.878906 21.761719 L 10.878906 10.238281 L 14.078125 10.238281 Z M 21.121094 21.761719 L 17.921875 21.761719 L 17.921875 10.238281 L 21.121094 10.238281 Z M 21.121094 21.761719 "/>
</svg>

<svg role="img" viewBox="0 0 32 32" height="32" width="32" xmlns="http://www.w3.org/2000/svg"><path d="M16 1.281C7.883 1.281 1.281 7.883 1.281 16c0 8.117 6.602 14.719 14.719 14.719 8.117 0 14.719-6.602 14.719-14.719 0-8.117-6.602-14.719-14.719-14.719m-1.922 20.48h-3.2V10.239h3.2Zm7.043 0h-3.2V10.239h3.2Zm0 0"/></svg>
